vectors/facebook/facebook-square.svg

<svg xmlns="http://www.w3.org/2000/svg" viewBox="0 0 256 256"><path d="M241.871 256.001c7.802 0 14.129-6.326 14.129-14.129V14.129C256 6.325 249.673 0 241.871 0H14.129C6.324 0 0 6.325 0 14.129v227.743c0 7.803 6.324 14.129 14.129 14.129h227.742" fill="#395185"/><path d="M176.635 256.001v-99.137h33.277l4.982-38.635h-38.259V93.561c0-11.186 3.107-18.809 19.148-18.809l20.459-.009V40.188c-3.54-.471-15.684-1.523-29.812-1.523-29.498 0-49.692 18.005-49.692 51.071v28.493h-33.362v38.635h33.362v99.137h39.897" fill="#FFF"/></svg>

<svg version="1.1" xmlns="http://www.w3.org/2000/svg" xmlns:xlink="http://www.w3.org/1999/xlink" viewBox="0 0 256 256">
	<g>
		<path d="M241.871,256.001 C249.673,256.001 256,249.675 256,241.872 L256,14.129 C256,6.325 249.673,0 241.871,0 L14.129,0 C6.324,0 0,6.325 0,14.129 L0,241.872 C0,249.675 6.324,256.001 14.129,256.001 L241.871,256.001" fill="#395185" />
		<path d="M176.635,256.001 L176.635,156.864 L209.912,156.864 L214.894,118.229 L176.635,118.229 L176.635,93.561 C176.635,82.375 179.742,74.752 195.783,74.752 L216.242,74.743 L216.242,40.188 C212.702,39.717 200.558,38.665 186.43,38.665 C156.932,38.665 136.738,56.67 136.738,89.736 L136.738,118.229 L103.376,118.229 L103.376,156.864 L136.738,156.864 L136.738,256.001 L176.635,256.001" fill="#FFFFFF" />
	</g>
</svg>
